X:7
T:Exercice n6
T:Sur le pont d'Avignon
M:2/4
L:1/8
K:Bb
BB | B2cc | c2 de | fB AB | cF BB | B2 cc | c2 de | fB cA | B4 |
B2 B2 B2 B2 B2  c4 B4 | B2 B2 B2 B2 B2  c4 B4 |
%newpage
%%begintext justify
